X:934
T:Reel Sam Cormier
T:Sam Cormier's Reel
T:Dennis Langtou's
T:Denis Lanctot's
R:reel
C:Denis Lanctot, Ottawa, Canada
H:Originally composed in E
D:Sean Smyth: The Blue Fiddle
Z:id:hn-reel-934
M:C|
L:1/8
K:D
D2A,D B,DA,B, | D2dA GFEF | DF~F2 Adfe | dBBA BdAF | 
D2A,D B,DA,B, | D2dA GFEF | DFBF AF~F2 |1 ~E3F DEFE :|2 ~E3F D3f ||
|: fedA FAdf | eA~A2 edef | fedA BddA | BdAD FEEf | 
fedA FAdf | eA~A2 edef | gfed fedB |1 ABde fdde :|2 ABde fedA ||

